icons/Color/scalable/gimp-swap-colors.svg

<svg height="12" viewBox="0 0 12 12" width="12" xmlns="http://www.w3.org/2000/svg"><path d="m4.0797945 4.4690153-3.67510632 2.5851661 3.67510632 2.9559566v-1.9991214h2.4595086c1.2440267.00956 1.4319092.089505 1.4513831 1.0976015l-.0323374 2.8103589h-1.9685012l2.9918879 3.676333 2.5527625-3.676333h-1.5959525v-2.8103589c.0260085-2.9435786-1.0432015-3.0872475-3.4106557-3.0455121h-2.4480953z" fill="#fff" stroke="#000001" stroke-width=".486971" transform="translate(0 -4)"/></svg>

<?xml version="1.0" encoding="UTF-8" standalone="no"?>
<!-- Created with Inkscape (http://www.inkscape.org/) -->

<svg
   xmlns:dc="http://purl.org/dc/elements/1.1/"
   xmlns:cc="http://creativecommons.org/ns#"
   xmlns:rdf="http://www.w3.org/1999/02/22-rdf-syntax-ns#"
   xmlns:svg="http://www.w3.org/2000/svg"
   xmlns="http://www.w3.org/2000/svg"
   xmlns:sodipodi="http://sodipodi.sourceforge.net/DTD/sodipodi-0.dtd"
   xmlns:inkscape="http://www.inkscape.org/namespaces/inkscape"
   inkscape:export-ydpi="90.000000"
   inkscape:export-xdpi="90.000000"
   inkscape:export-filename="/home/jimmac/src/cvs/gnome/gimp/themes/Default/images/stock-layers-16.png"
   width="12"
   height="12"
   id="svg11300"
   sodipodi:version="0.32"
   inkscape:version="0.91+devel r"
   sodipodi:docname="gimp-swap-colorsa.svg"
   version="1.0"
   viewBox="0 0 12 12">
  <sodipodi:namedview
     inkscape:cy="8.6335628"
     inkscape:cx="6.6995694"
     inkscape:zoom="19.703222"
     inkscape:window-height="1016"
     inkscape:window-width="1920"
     inkscape:pageshadow="2"
     inkscape:pageopacity="0.0"
     borderopacity="0.17254902"
     bordercolor="#666"
     pagecolor="#ffffff"
     id="base"
     inkscape:showpageshadow="false"
     showborder="true"
     inkscape:window-x="0"
     inkscape:window-y="27"
     inkscape:current-layer="layer1"
     width="16px"
     height="16px"
     showgrid="true"
     inkscape:window-maximized="1"
     inkscape:document-units="px"
     inkscape:snap-global="false"
     showguides="true">
    <inkscape:grid
       type="xygrid"
       id="grid4012" />
  </sodipodi:namedview>
  <defs
     id="defs3" />
  <sodipodi:namedview
     stroke="#ef2929"
     fill="#eeeeec"
     pagecolor="#ffffff"
     bordercolor="#666666"
     borderopacity="0.25490196"
     inkscape:pageopacity="0.0"
     inkscape:pageshadow="2"
     inkscape:zoom="1"
     inkscape:cx="-14.198652"
     inkscape:cy="-5.1663457"
     inkscape:current-layer="layer1"
     showgrid="false"
     inkscape:grid-bbox="true"
     inkscape:document-units="px"
     inkscape:showpageshadow="false"
     inkscape:window-width="872"
     inkscape:window-height="659"
     inkscape:window-x="403"
     inkscape:window-y="296"
     width="32px"
     height="32px"
     id="namedview73" />
  <metadata
     id="metadata4">
    <rdf:RDF>
      <cc:Work
         rdf:about="">
        <dc:format>image/svg+xml</dc:format>
        <dc:type
           rdf:resource="http://purl.org/dc/dcmitype/StillImage" />
        <dc:creator>
          <cc:Agent>
            <dc:title>Jakub Steiner</dc:title>
          </cc:Agent>
        </dc:creator>
        <dc:source>http://jimmac.musichall.cz</dc:source>
        <cc:license
           rdf:resource="http://creativecommons.org/licenses/by-sa/2.0/" />
        <dc:title />
      </cc:Work>
      <cc:License
         rdf:about="http://creativecommons.org/licenses/by-sa/2.0/">
        <cc:permits
           rdf:resource="http://web.resource.org/cc/Reproduction" />
        <cc:permits
           rdf:resource="http://web.resource.org/cc/Distribution" />
        <cc:requires
           rdf:resource="http://web.resource.org/cc/Notice" />
        <cc:requires
           rdf:resource="http://web.resource.org/cc/Attribution" />
        <cc:permits
           rdf:resource="http://web.resource.org/cc/DerivativeWorks" />
        <cc:requires
           rdf:resource="http://web.resource.org/cc/ShareAlike" />
      </cc:License>
    </rdf:RDF>
  </metadata>
  <g
     id="layer1"
     inkscape:label="Layer 1"
     inkscape:groupmode="layer"
     transform="translate(0,-4)">
    <path
       style="color:#000000;font-style:normal;font-variant:normal;font-weight:normal;font-stretch:normal;font-size:medium;line-height:normal;font-family:sans-serif;font-variant-ligatures:normal;font-variant-position:normal;font-variant-caps:normal;font-variant-numeric:normal;font-variant-alternates:normal;font-feature-settings:normal;text-indent:0;text-align:start;text-decoration:none;text-decoration-line:none;text-decoration-style:solid;text-decoration-color:#000000;letter-spacing:normal;word-spacing:normal;text-transform:none;writing-mode:lr-tb;direction:ltr;text-orientation:mixed;dominant-baseline:auto;baseline-shift:baseline;text-anchor:start;white-space:normal;shape-padding:0;clip-rule:nonzero;display:inline;overflow:visible;visibility:visible;opacity:1;isolation:auto;mix-blend-mode:normal;color-interpolation:sRGB;color-interpolation-filters:linearRGB;solid-color:#000000;solid-opacity:1;fill:#ffffff;fill-opacity:1;fill-rule:nonzero;stroke:#000001;stroke-width:0.48697117;stroke-linecap:butt;stroke-linejoin:miter;stroke-miterlimit:4;stroke-dasharray:none;stroke-dashoffset:0;stroke-opacity:1;marker:none;color-rendering:auto;image-rendering:auto;shape-rendering:auto;text-rendering:auto;enable-background:accumulate"
       d="M 4.0797945,4.4690153 0.40468818,7.0541814 4.0797945,10.010138 V 8.0110166 h 2.4595086 c 1.2440267,0.00956 1.4319092,0.089505 1.4513831,1.0976015 L 7.9583488,11.918977 H 5.9898476 L 8.9817355,15.59531 11.534498,11.918977 H 9.9385455 V 9.1086181 C 9.964554,6.1650395 8.895344,6.0213706 6.5278898,6.063106 H 4.0797945 Z"
       id="path6936"
       inkscape:connector-curvature="0"
       sodipodi:nodetypes="ccccccccccccccc" />
  </g>
</svg>
